X: 21
T:Road to the Isles
M:4/4
L:1/8
K:D % 2 sharps
A>d|f4 a>f e>f|d>e d>c B2 d>c|B>G B>c d>e fd|!
f4 a>f e>f|d>e d>c B2 g2|fd A>c eg|a>A A/2A/2A f>A A/A/A|d>e d>c B2 d>c|B>G B>c d>e fg|!
a>A A/A/A f>A A/A/A|d>e d>c B2 g2|fd A>c e

